packages/core/src/svgs/tokens/mono/SFRXETH.svg

<svg width="24" height="24" viewBox="0 0 24 24" fill="none" xmlns="http://www.w3.org/2000/svg">
<path d="M15.1774 6.89917C15.1704 6.89302 15.1647 6.88544 15.1607 6.87695L12.3716 2.05445C12.3272 1.97666 12.305 1.98222 12.305 2.07112V7.01584C13.0836 7.10928 13.7999 7.48826 14.315 8.07945C14.8303 8.67063 15.1079 9.43194 15.094 10.216L17.6831 11.355C17.6891 11.3573 17.6957 11.3574 17.7017 11.3554C17.7078 11.3533 17.713 11.3493 17.7165 11.3438C17.7213 11.3354 17.7238 11.3258 17.7238 11.3161C17.7238 11.3064 17.7213 11.2968 17.7165 11.2883L16.4885 9.16596C16.4719 9.14374 16.4775 9.12152 16.4941 9.0993L19.1943 6.24358C19.2332 6.19913 19.2332 6.16024 19.1943 6.12134L17.6664 4.49904C17.656 4.48811 17.6436 4.4794 17.6297 4.47346C17.6159 4.46751 17.6009 4.46445 17.5859 4.46445C17.5707 4.46445 17.5558 4.46751 17.542 4.47346C17.5282 4.4794 17.5156 4.48811 17.5053 4.49904L15.2552 6.88806C15.2486 6.8944 15.2406 6.89918 15.2321 6.90206C15.2234 6.90495 15.2142 6.90586 15.2051 6.90473C15.1955 6.90531 15.1861 6.90339 15.1774 6.89917ZM11.7105 2.06001L11.7161 7.01029C10.9324 7.09869 10.2101 7.47627 9.6901 8.06917C9.17018 8.66205 8.89015 9.42753 8.9048 10.216L6.33798 11.3494C6.3308 11.352 6.32296 11.352 6.31576 11.3494H6.3102L6.29909 11.3383C6.29455 11.3318 6.29212 11.324 6.29212 11.3161C6.29212 11.3082 6.29455 11.3004 6.29909 11.2939L7.5325 9.15485C7.53765 9.14722 7.53991 9.138 7.53889 9.12884C7.53788 9.11968 7.53364 9.11118 7.52695 9.10485L4.7879 6.2158C4.78356 6.21151 4.78029 6.20624 4.77836 6.20046C4.77643 6.19467 4.77589 6.1885 4.77679 6.18247C4.77671 6.17733 4.77766 6.17223 4.77956 6.16747C4.78147 6.1627 4.78431 6.15836 4.7879 6.15469L6.41022 4.44902C6.4147 4.44393 6.42045 4.44011 6.42688 4.43791H6.44355L6.45466 4.44902L8.77702 6.91584L8.78812 6.9214C8.79319 6.92432 8.79895 6.92586 8.8048 6.92586C8.81064 6.92586 8.8164 6.92432 8.82147 6.9214C8.82589 6.91848 8.82966 6.91471 8.83258 6.91029L11.6383 2.03777C11.6443 2.03175 11.652 2.02784 11.6605 2.02666H11.6828C11.692 2.0293 11.6999 2.03523 11.7049 2.04334V2.06001H11.7105ZM6.28798 12.0439L8.96592 10.8661C9.08879 11.5305 9.42279 12.1376 9.91826 12.597C10.4137 13.0565 11.0443 13.3437 11.7161 13.4162V15.5275C11.7161 15.5385 11.7161 15.5496 11.7049 15.5608C11.7014 15.5695 11.6956 15.5771 11.6883 15.583C11.6799 15.5879 11.6703 15.5905 11.6605 15.5905C11.6507 15.5905 11.6411 15.5879 11.6327 15.583L6.28242 12.1495C6.27304 12.1443 6.26532 12.1367 6.2602 12.1272C6.25566 12.1175 6.25378 12.1067 6.25476 12.096C6.25573 12.0852 6.25953 12.075 6.26576 12.0662C6.27087 12.0567 6.2786 12.0491 6.28798 12.0439ZM12.305 15.5275V13.4162C12.9723 13.337 13.5967 13.0461 14.0866 12.5861C14.5765 12.1262 14.9062 11.5214 15.0274 10.8605L17.722 12.0439C17.7257 12.0433 17.7294 12.0433 17.733 12.0439C17.7398 12.0483 17.7455 12.0539 17.7498 12.0606C17.755 12.0673 17.7586 12.0751 17.7605 12.0834C17.7625 12.0917 17.7626 12.1004 17.7611 12.1087C17.7595 12.1171 17.7563 12.125 17.7515 12.132C17.7465 12.139 17.7403 12.145 17.733 12.1495L12.3939 15.5774C12.3854 15.5823 12.3759 15.5849 12.3661 15.5849C12.3563 15.5849 12.3468 15.5823 12.3383 15.5774C12.3296 15.5739 12.322 15.5682 12.3162 15.5608C12.3092 15.5509 12.3054 15.5394 12.305 15.5275ZM9.41592 18.7999C9.4259 18.7882 9.43964 18.7803 9.45481 18.7776C9.47711 18.7776 9.4937 18.7776 9.50485 18.7999C10.2382 19.911 10.9382 20.9555 11.6105 21.9445C11.6271 21.9723 11.6439 21.989 11.666 22H11.6828L11.7049 21.9944L11.7105 21.9834L11.7161 21.9611V17.5165C11.7163 17.4991 11.7126 17.482 11.7049 17.4665C11.6958 17.4501 11.6824 17.4366 11.666 17.4276L6.38798 14.0329C6.3602 14.0107 6.34354 14.0217 6.34909 14.0606C6.34909 14.0885 6.3602 14.1162 6.37687 14.1384L8.05475 16.6386C8.06345 16.651 8.06765 16.6661 8.06664 16.6812C8.06563 16.6964 8.05947 16.7108 8.04919 16.722L5.49349 19.4276C5.48295 19.439 5.47709 19.4539 5.47709 19.4694C5.47709 19.4848 5.48295 19.4997 5.49349 19.511L7.07137 21.1777C7.07762 21.1847 7.08517 21.1904 7.09359 21.1944C7.10606 21.201 7.1203 21.2035 7.13429 21.2016C7.14827 21.1996 7.16124 21.1931 7.17137 21.1833L9.41592 18.7943V18.7999ZM14.5829 18.7888H14.5884L16.8108 21.1444C16.8664 21.2 16.9219 21.2 16.9775 21.1444L18.5053 19.5277C18.5442 19.4888 18.5442 19.4499 18.5053 19.4166L15.9829 16.7497C15.9641 16.731 15.9527 16.7061 15.9507 16.6796C15.9486 16.6531 15.9561 16.6267 15.9719 16.6053L17.6942 14.0552C17.6971 14.0512 17.6991 14.0466 17.7001 14.0418C17.701 14.037 17.7009 14.0321 17.6997 14.0273C17.6983 14.0206 17.6943 14.0146 17.6886 14.0107H17.6553L12.3828 17.3998C12.3648 17.4129 12.3496 17.4295 12.3382 17.4486C12.3268 17.4676 12.3193 17.4889 12.3162 17.5109L12.3106 17.5442L12.305 21.9611L12.3106 21.9834L12.3383 21.9944C12.3474 21.9969 12.357 21.9969 12.3661 21.9944C12.3753 21.9891 12.3831 21.9815 12.3884 21.9723L14.5107 18.7999C14.5153 18.7937 14.521 18.7885 14.5278 18.7846C14.5345 18.7808 14.5419 18.7784 14.5495 18.7776H14.5663C14.5726 18.7801 14.5783 18.7838 14.5829 18.7888ZM12.5605 10.8771C12.5773 10.9216 12.5884 10.9772 12.5884 11.0327C12.5884 11.1049 12.5661 11.1661 12.5328 11.2272C12.4919 11.2874 12.4339 11.3338 12.3661 11.3606C12.2939 11.3939 12.1995 11.4106 12.0828 11.4106C11.9772 11.4106 11.8884 11.3994 11.805 11.3827C11.7286 11.3668 11.6567 11.3345 11.5938 11.2883C11.5348 11.2414 11.4889 11.1802 11.4606 11.1105C11.4327 11.0383 11.4161 10.9439 11.4161 10.8438H10.6215C10.6215 11.0438 10.666 11.2161 10.7494 11.3661C10.8327 11.5105 10.9438 11.6272 11.0827 11.7217C11.2216 11.8161 11.3828 11.8883 11.5549 11.9328C11.9012 12.0222 12.2644 12.0222 12.6106 11.9328C12.7717 11.8939 12.905 11.8272 13.0216 11.7439C13.1344 11.6634 13.2258 11.5564 13.2878 11.4325C13.3498 11.3086 13.3805 11.1713 13.3772 11.0327C13.38 10.9018 13.354 10.7717 13.3013 10.6517C13.2485 10.5318 13.1701 10.4248 13.0717 10.3382C12.9717 10.2439 12.8495 10.1605 12.6995 10.0883C12.538 10.0108 12.3709 9.94569 12.1995 9.89384C12.0264 9.83965 11.8589 9.769 11.6993 9.68266C11.6478 9.6483 11.6025 9.605 11.5661 9.55484C11.5372 9.51011 11.5217 9.45813 11.5216 9.40487C11.5216 9.33265 11.5383 9.27153 11.5772 9.21042C11.6161 9.15485 11.6772 9.10485 11.755 9.07152C11.8327 9.03818 11.9327 9.01596 12.0494 9.01596C12.1716 9.01596 12.2717 9.03818 12.3495 9.08263C12.4273 9.12152 12.4883 9.18263 12.5272 9.24931C12.5661 9.32709 12.5884 9.41042 12.5884 9.50492H13.3772C13.3772 9.2882 13.3218 9.0993 13.2107 8.94374C13.0994 8.77706 12.9439 8.65483 12.7494 8.56594C12.3615 8.41392 11.935 8.39055 11.5328 8.49926C11.3661 8.54372 11.2272 8.61038 11.1105 8.69372C10.9883 8.77705 10.8938 8.87707 10.8327 8.99929C10.766 9.11596 10.7326 9.24931 10.7326 9.39931C10.7326 9.55484 10.7605 9.68823 10.8271 9.79933C10.8882 9.91043 10.9771 10.016 11.0882 10.0993C11.1993 10.1882 11.3272 10.266 11.4716 10.3271C11.6161 10.3938 11.7661 10.4493 11.9272 10.4994C12.0661 10.5438 12.1772 10.5827 12.2605 10.6272C12.3495 10.6661 12.4161 10.705 12.4606 10.7439C12.5106 10.7883 12.5439 10.8272 12.5605 10.8771Z" fill="white"/>
</svg>

<svg xmlns="http://www.w3.org/2000/svg" width="24" height="24" fill="none" viewBox="0 0 24 24">
    <path fill="#fff" d="m15.177 6.9-.016-.023-2.79-4.823q-.066-.116-.066.017v4.945a3.166 3.166 0 0 1 2.789 3.2l2.59 1.139a.03.03 0 0 0 .032-.011.06.06 0 0 0 0-.056l-1.228-2.122c-.016-.022-.01-.044.006-.067l2.7-2.855q.06-.066 0-.123L17.666 4.5a.11.11 0 0 0-.16 0l-2.25 2.39a.06.06 0 0 1-.05.016.1.1 0 0 1-.029-.006m-3.466-4.84.005 4.95a3.167 3.167 0 0 0-2.811 3.206l-2.567 1.133a.03.03 0 0 1-.022 0H6.31l-.01-.01a.04.04 0 0 1 0-.045l1.233-2.14a.04.04 0 0 0-.006-.05l-2.74-2.888a.04.04 0 0 1-.01-.034.04.04 0 0 1 .01-.027L6.41 4.449a.04.04 0 0 1 .017-.011h.017l.01.011 2.323 2.467.011.005a.03.03 0 0 0 .033 0l.012-.01 2.805-4.873a.04.04 0 0 1 .023-.011h.022q.014.003.022.016v.017zm-5.423 9.984 2.678-1.178a3.14 3.14 0 0 0 2.75 2.55v2.111c0 .012 0 .023-.011.034l-.017.022a.06.06 0 0 1-.055 0l-5.35-3.434a.1.1 0 0 1-.023-.022.06.06 0 0 1 .006-.06.1.1 0 0 1 .022-.023m6.017 3.483v-2.11a3.14 3.14 0 0 0 2.722-2.556l2.695 1.183h.011q.01.006.017.017a.06.06 0 0 1 .002.071l-.019.018-5.34 3.427a.06.06 0 0 1-.055 0l-.022-.016a.06.06 0 0 1-.011-.034M9.415 18.8a.07.07 0 0 1 .04-.022c.022 0 .039 0 .05.022a277 277 0 0 0 2.105 3.145.13.13 0 0 0 .056.055h.017l.022-.006.005-.01.006-.023v-4.444a.1.1 0 0 0-.011-.05.1.1 0 0 0-.039-.04l-5.278-3.394c-.028-.022-.044-.011-.039.028q.001.042.028.077l1.678 2.5a.07.07 0 0 1-.006.084l-2.556 2.706a.06.06 0 0 0 0 .083l1.578 1.667.023.016q.019.01.04.008a.1.1 0 0 0 .037-.019l2.245-2.389zm5.168-.011h.005l2.223 2.355q.082.084.166 0l1.528-1.616q.06-.06 0-.111l-2.522-2.667a.11.11 0 0 1-.011-.145l1.722-2.55.006-.013v-.015a.03.03 0 0 0-.011-.016h-.034L12.383 17.4a.17.17 0 0 0-.067.11l-.005.034-.006 4.417.006.022.027.011q.015.005.028 0a.1.1 0 0 0 .022-.022l2.123-3.172a.06.06 0 0 1 .039-.022h.016l.017.01m-2.023-7.912a.4.4 0 0 1-.028.35.36.36 0 0 1-.166.134.7.7 0 0 1-.283.05c-.106 0-.195-.012-.278-.028a.54.54 0 0 1-.211-.095.44.44 0 0 1-.133-.178.8.8 0 0 1-.045-.266h-.795q.002.298.128.522.126.215.334.356c.139.094.3.166.472.21.346.09.71.09 1.056 0 .16-.038.294-.105.41-.188a.85.85 0 0 0 .356-.711.9.9 0 0 0-.305-.695 1.5 1.5 0 0 0-.372-.25 3.5 3.5 0 0 0-.5-.194 3 3 0 0 1-.5-.211.5.5 0 0 1-.134-.128.3.3 0 0 1-.044-.15c0-.072.016-.133.055-.195a.4.4 0 0 1 .178-.138.8.8 0 0 1 .294-.056.6.6 0 0 1 .3.067.43.43 0 0 1 .178.166.56.56 0 0 1 .061.256h.79a.94.94 0 0 0-.167-.561 1.07 1.07 0 0 0-.462-.378 1.94 1.94 0 0 0-1.216-.067 1.3 1.3 0 0 0-.422.195.8.8 0 0 0-.278.305.8.8 0 0 0-.1.4c0 .156.027.29.094.4a.95.95 0 0 0 .261.3q.167.136.384.228.215.099.455.172c.14.045.25.084.334.128a.8.8 0 0 1 .2.117c.05.044.083.083.1.133"/>
</svg>
